Numix/16/status/indicator-keyboard-Hi-1.svg

<?xml version="1.0" encoding="UTF-8" standalone="no"?>
<svg
   xmlns:dc="http://purl.org/dc/elements/1.1/"
   xmlns:cc="http://creativecommons.org/ns#"
   xmlns:rdf="http://www.w3.org/1999/02/22-rdf-syntax-ns#"
   xmlns:svg="http://www.w3.org/2000/svg"
   xmlns="http://www.w3.org/2000/svg"
   xmlns:sodipodi="http://sodipodi.sourceforge.net/DTD/sodipodi-0.dtd"
   xmlns:inkscape="http://www.inkscape.org/namespaces/inkscape"
   viewBox="0 0 16 16"
   id="svg2"
   version="1.1"
   inkscape:version="0.91 r13725"
   sodipodi:docname="indicator-keyboard-Hi-1.svg">
  <metadata
     id="metadata14">
    <rdf:RDF>
      <cc:Work
         rdf:about="">
        <dc:format>image/svg+xml</dc:format>
        <dc:type
           rdf:resource="http://purl.org/dc/dcmitype/StillImage" />
      </cc:Work>
    </rdf:RDF>
  </metadata>
  <defs
     id="defs12" />
  <sodipodi:namedview
     pagecolor="#ffffff"
     bordercolor="#666666"
     borderopacity="1"
     objecttolerance="10"
     gridtolerance="10"
     guidetolerance="10"
     inkscape:pageopacity="0"
     inkscape:pageshadow="2"
     inkscape:window-width="640"
     inkscape:window-height="480"
     id="namedview10"
     showgrid="false"
     inkscape:zoom="14.75"
     inkscape:cx="8"
     inkscape:cy="8"
     inkscape:window-x="75"
     inkscape:window-y="34"
     inkscape:window-maximized="0"
     inkscape:current-layer="svg2" />
  <path
     style="fill:#ececec;fill-opacity:1"
     d="M 1.5996094 0 C 0.71320937 2.9605947e-16 0 0.71320937 0 1.5996094 L 0 14.400391 C 2.9605947e-16 15.286791 0.71320937 16 1.5996094 16 L 14.400391 16 C 15.286791 16 16 15.286791 16 14.400391 L 16 1.5996094 C 16 0.71320937 15.286791 0 14.400391 0 L 1.5996094 0 z M 9.671875 4.5898438 C 9.791875 4.5898438 9.8945156 4.6308438 9.9785156 4.7148438 C 10.062515 4.7928438 10.103516 4.9010625 10.103516 5.0390625 C 10.103516 5.1770625 10.062515 5.2870938 9.9785156 5.3710938 C 9.8945156 5.4490937 9.791875 5.4882812 9.671875 5.4882812 C 9.551875 5.4882812 9.4511875 5.4490938 9.3671875 5.3710938 C 9.2831875 5.2870937 9.2402344 5.1770625 9.2402344 5.0390625 C 9.2402344 4.9010625 9.2831875 4.7928438 9.3671875 4.7148438 C 9.4511875 4.6308438 9.551875 4.5898437 9.671875 4.5898438 z M 3.1972656 4.859375 L 3.8105469 4.859375 L 3.8105469 7.5683594 L 7.1933594 7.5683594 L 7.1933594 4.859375 L 7.8066406 4.859375 L 7.8066406 11.095703 L 7.1933594 11.095703 L 7.1933594 8.0996094 L 3.8105469 8.0996094 L 3.8105469 11.095703 L 3.1972656 11.095703 L 3.1972656 4.859375 z M 9.3847656 6.4433594 L 9.96875 6.4433594 L 9.96875 11.095703 L 9.3847656 11.095703 L 9.3847656 6.4433594 z M 12.533203 8.8417969 L 12.802734 8.8417969 L 12.802734 12.896484 L 12.421875 12.896484 L 12.421875 9.421875 C 12.378975 9.468675 12.322153 9.5157063 12.251953 9.5664062 C 12.185653 9.6171063 12.109238 9.66805 12.023438 9.71875 C 11.937638 9.76555 11.849459 9.812575 11.755859 9.859375 C 11.662259 9.902275 11.568209 9.9375437 11.474609 9.9648438 L 11.363281 9.671875 C 11.597281 9.5899751 11.804981 9.4880813 11.988281 9.3632812 C 12.171581 9.2345813 12.353803 9.0601969 12.533203 8.8417969 z "
     id="path4" />
</svg>

<svg xmlns="http://www.w3.org/2000/svg" viewBox="0 0 16 16">
 <path d="m 1.6 0 c -0.886 0 -1.6 0.713 -1.6 1.6 l 0 12.801 c 0 0.886 0.713 1.6 1.6 1.6 l 12.801 0 c 0.886 0 1.6 -0.713 1.6 -1.6 l 0 -12.801 c 0 -0.886 -0.713 -1.6 -1.6 -1.6 l -12.801 0 z m 8.07 4.59 c 0.12 0 0.223 0.041 0.307 0.125 c 0.084 0.078 0.125 0.186 0.125 0.324 c 0 0.138 -0.041 0.248 -0.125 0.332 c -0.084 0.078 -0.187 0.117 -0.307 0.117 c -0.12 0 -0.221 -0.039 -0.305 -0.117 c -0.084 -0.084 -0.127 -0.194 -0.127 -0.332 c 0 -0.138 0.043 -0.246 0.127 -0.324 c 0.084 -0.084 0.185 -0.125 0.305 -0.125 z m -6.475 0.27 l 0.613 0 l 0 2.709 l 3.383 0 l 0 -2.709 l 0.613 0 l 0 6.236 l -0.613 0 l 0 -2.996 l -3.383 0 l 0 2.996 l -0.613 0 l 0 -6.236 z m 6.188 1.584 l 0.584 0 l 0 4.652 l -0.584 0 l 0 -4.652 z m 3.148 2.398 l 0.27 0 l 0 4.055 l -0.381 0 l 0 -3.475 c -0.043 0.047 -0.1 0.094 -0.17 0.145 c -0.066 0.051 -0.143 0.102 -0.229 0.152 c -0.086 0.047 -0.174 0.094 -0.268 0.141 c -0.094 0.043 -0.188 0.078 -0.281 0.105 l -0.111 -0.293 c 0.234 -0.082 0.442 -0.184 0.625 -0.309 c 0.183 -0.129 0.366 -0.303 0.545 -0.521 z" style="fill:#ececec;fill-opacity:1"/>
</svg>
